docs/.gitbook/assets/icon-bluetooth-16@dark.svg

<svg width="32" height="32" viewBox="0 0 16 16" fill="none" xmlns="http://www.w3.org/2000/svg">
<rect x="0" y="0" width="16" height="16" fill="#181c1f"/>
<path fill-rule="evenodd" clip-rule="evenodd" d="M7.40184 1.07953C7.65554 0.952352 7.9593 0.979262 8.18669 1.14906L12.1047 4.07481C12.2867 4.2107 12.3973 4.42176 12.4055 4.64874C12.4137 4.87573 12.3185 5.09419 12.1468 5.24283L8.96124 8.00001L12.1468 10.7572C12.3185 10.9058 12.4137 11.1243 12.4055 11.3513C12.3973 11.5783 12.2867 11.7893 12.1047 11.9252L8.18669 14.8509C7.9593 15.0207 7.65554 15.0477 7.40184 14.9205C7.14814 14.7933 6.98795 14.5338 6.98795 14.25V9.70793L4.83483 11.5715C4.52164 11.8426 4.04799 11.8084 3.77692 11.4952C3.50584 11.182 3.53999 10.7084 3.85318 10.4373L6.66919 8.00001L3.85318 5.5627C3.53999 5.29162 3.50584 4.81798 3.77692 4.50478C4.04799 4.19159 4.52164 4.15744 4.83483 4.42852L6.98795 6.29209V1.75C6.98795 1.46621 7.14814 1.20672 7.40184 1.07953ZM8.48795 9.57418L10.4602 11.2812L8.48795 12.7539V9.57418ZM8.48795 6.42583V3.24609L10.4602 4.71883L8.48795 6.42583Z" fill="#fff"/>
</svg>

<svg xmlns="http://www.w3.org/2000/svg" width="32" height="32" fill="none" viewBox="0 0 16 16"><path fill="#181c1f" d="M0 0h16v16H0z"/><path fill="#fff" fill-rule="evenodd" d="M7.402 1.08a.75.75 0 0 1 .785.07l3.918 2.925a.75.75 0 0 1 .042 1.168L8.96 8l3.186 2.757a.75.75 0 0 1-.042 1.168l-3.918 2.926a.75.75 0 0 1-1.199-.601V9.708l-2.153 1.864a.75.75 0 1 1-.982-1.135L6.67 8 3.853 5.563a.75.75 0 0 1 .982-1.134l2.153 1.863V1.75a.75.75 0 0 1 .414-.67m1.086 8.494 1.972 1.707-1.972 1.473zm0-3.148v-3.18L10.46 4.72z" clip-rule="evenodd"/></svg>
